X:164
T:Rachel Rae
O:scotland
R:Reel
M:4/4
K:D
D2FA d2Ac|d2fd e2cA|d2AF BAGF|EFGA FDD2:|\
defg a2fd|g2bg e2cA|
defg a2gf|egfe fddA|\
defg a2fd|g2bg e2cA|d2AF BAGF|EFGA FDD2|]
